Komodo/status/24/weather-few-clouds-night.svg

<?xml version="1.0" encoding="UTF-8" standalone="no"?>
<!-- Created with Inkscape (http://www.inkscape.org/) -->
<svg
   xmlns:svg="http://www.w3.org/2000/svg"
   xmlns="http://www.w3.org/2000/svg"
   version="1.0"
   width="24"
   height="24"
   id="svg3186">
  <defs
     id="defs3188" />
  <path
     d="M 11.896943,5.5121495 C 10.206831,5.795794 8.6985881,6.8077709 7.7108107,8.1983957 C 6.7189149,9.5949719 6.3053165,11.380774 6.586178,13.071121 C 6.8663084,14.757048 7.8194264,16.290192 9.210321,17.287903 C 10.603587,18.287304 12.400091,18.694937 14.083729,18.412379 C 15.766503,18.129984 17.308065,17.155396 18.301102,15.757368 C 18.384583,15.639851 18.4574,15.511805 18.48854,15.351307 C 18.519681,15.190809 18.487005,15.000785 18.394821,14.851541 C 18.210452,14.553052 17.94194,14.49822 17.707546,14.44548 C 17.238757,14.34 16.658719,14.334017 16.051836,14.320538 C 15.444954,14.30706 14.832473,14.263462 14.396127,14.164361 C 14.177954,14.11481 14.012953,14.067875 13.92753,14.008184 C 13.842107,13.948493 13.84327,13.90894 13.833811,13.852007 L 13.802571,13.852007 C 13.808028,12.841145 13.504462,12.081307 13.115296,11.603057 C 12.707739,11.102206 12.232237,10.807765 12.178102,10.7597 C 12.085279,10.677265 12.013094,10.402648 12.084382,9.9163439 C 12.155671,9.4300396 12.331914,8.820131 12.521739,8.2296312 C 12.711565,7.6391314 12.915476,7.1012726 12.959097,6.6053892 C 12.980907,6.3574475 12.969066,6.0876225 12.771658,5.8245037 C 12.574249,5.5613849 12.188933,5.4631492 11.896943,5.5121495 z M 10.288241,12.50011 C 9.4059122,12.491539 8.5967382,12.982422 8.1500329,13.636573 C 7.3622482,13.1597 6.2050615,13.576101 5.9110454,14.352863 C 5.6707598,14.719703 6.0941151,15.20341 5.5183422,15.348158 C 4.5327474,15.988683 4.2073178,17.270347 4.7872096,18.222383 C 5.2520793,19.053977 6.3066862,19.562943 7.3459611,19.49373 C 8.9203281,19.489356 10.495188,19.50259 12.069239,19.486913 C 13.37435,19.422072 14.492341,18.380851 14.498006,17.222546 C 14.541656,16.302389 13.863854,15.425131 12.919883,15.064438 C 12.948318,13.886845 11.9845,12.682079 10.623867,12.520889 C 10.512724,12.507015 10.400481,12.500104 10.288241,12.50011 z"
     id="path3184"
     style="opacity:0.6;fill:none;fill-opacity:1;fill-rule:nonzero;stroke:#3a3935;stroke-width:1.00000012;stroke-linecap:round;stroke-linejoin:miter;marker:none;marker-start:none;marker-mid:none;marker-end:none;stroke-miterlimit:4;stroke-dasharray:none;stroke-dashoffset:0;stroke-opacity:1;visibility:visible;display:inline;overflow:visible;enable-background:accumulate" />
  <path
     d="M 10.25,12.999999 C 9.4052719,12.999999 8.6815979,13.455365 8.296875,14.111606 C 8.0802401,13.957147 7.8036,13.857142 7.5000001,13.857142 C 6.8100001,13.857142 6.2500002,14.337142 6.2500001,14.92857 C 6.2500001,15.061396 6.2765049,15.186161 6.3281251,15.30357 C 5.5433713,15.604119 5.0000002,16.284583 5.0000002,17.071427 C 5.0000002,18.139856 6.0035002,18.999999 7.2500002,18.999999 L 11.75,18.999999 C 12.9965,18.999999 14,18.139856 14,17.071427 C 14,16.225139 13.365635,15.510985 12.484374,15.249999 C 12.486332,15.213388 12.5,15.179929 12.5,15.142856 C 12.5,13.959999 11.492,12.999999 10.25,12.999999 z"
     id="rect3193"
     style="fill:#eae3d1;fill-opacity:1;fill-rule:evenodd;stroke:none;stroke-width:4;stroke-linecap:butt;stroke-linejoin:miter;marker:none;marker-start:none;marker-mid:none;marker-end:none;stroke-miterlimit:4;stroke-dasharray:none;stroke-dashoffset:0;stroke-opacity:1;visibility:visible;display:inline;overflow:visible;enable-background:accumulate" />
  <path
     d="M 12,5.999999 C 10.449025,6.2603292 9.0385871,7.1823917 8.1250002,8.468749 C 7.2417571,9.7125177 6.8529617,11.299487 7.0625002,12.812499 C 7.2033133,12.786661 7.3537656,12.781249 7.5000002,12.781249 C 7.7115103,12.781249 7.8204116,12.887165 8.0000002,12.937499 C 8.5975809,12.363745 9.3468622,11.937499 10.25,11.937499 C 11.865109,11.937499 13.174891,13.124633 13.4375,14.656249 C 14.328821,15.166268 15.0625,15.962152 15.0625,17.062499 C 15.0625,17.257553 15.037905,17.44286 15,17.624999 C 16.149381,17.210748 17.196317,16.468356 17.90625,15.468749 C 18.819937,14.182382 13.60273,15.496391 13.34375,13.937499 C 13.414827,11.973191 12.177711,11.42155 11.84375,11.124999 C 10.665478,10.078436 13.551076,5.7396689 12,5.999999 z"
     id="path2876-6-6-4"
     style="fill:#eae3d1;fill-opacity:1;stroke:none;stroke-width:2;stroke-linecap:round;stroke-miterlimit:4;stroke-dasharray:none;stroke-dashoffset:0;stroke-opacity:1;display:inline" />
</svg>

<?xml version="1.0" encoding="UTF-8" standalone="no"?>
<!-- Created with Inkscape (http://www.inkscape.org/) -->
<svg id="svg3186" xmlns="http://www.w3.org/2000/svg" height="24" width="24" version="1.0">
 <path id="path3184" style="opacity:.6;stroke:#3a3935;stroke-linecap:round;fill:none" d="m11.897 5.5121c-1.69 0.2837-3.1984 1.2957-4.1862 2.6863-0.9919 1.3966-1.4055 3.1826-1.1246 4.8726 0.2801 1.686 1.2332 3.219 2.6241 4.217 1.3937 0.999 3.1897 1.407 4.8737 1.124 1.683-0.282 3.224-1.257 4.217-2.655 0.084-0.117 0.156-0.245 0.188-0.406 0.031-0.16-0.002-0.35-0.094-0.499-0.185-0.299-0.453-0.354-0.687-0.407-0.469-0.105-1.049-0.111-1.656-0.124-0.607-0.014-1.22-0.058-1.656-0.157-0.218-0.049-0.383-0.096-0.468-0.156-0.086-0.06-0.085-0.099-0.094-0.156h-0.031c0.005-1.011-0.299-1.771-0.688-2.249-0.407-0.501-0.883-0.795-0.937-0.843-0.093-0.083-0.165-0.357-0.094-0.8437 0.072-0.4863 0.248-1.0962 0.438-1.6867s0.393-1.1283 0.437-1.6242c0.022-0.248 0.01-0.5178-0.187-0.7809-0.198-0.2631-0.583-0.3614-0.875-0.3124zm-1.609 6.9879c-0.8821-0.008-1.6913 0.482-2.138 1.137-0.7878-0.477-1.9449-0.061-2.239 0.716-0.2402 0.367 0.1831 0.85-0.3927 0.995-0.9856 0.641-1.311 1.922-0.7311 2.874 0.4649 0.832 1.5195 1.341 2.5588 1.272 1.5743-0.005 3.149 0.009 4.723-0.007 1.305-0.065 2.423-1.106 2.429-2.264 0.044-0.921-0.634-1.798-1.578-2.159 0.028-1.177-0.936-2.382-2.296-2.543-0.111-0.014-0.224-0.021-0.336-0.021z"/>
 <path id="rect3193" style="fill-rule:evenodd;fill:#eae3d1" d="m10.25 13c-0.8447 0-1.5684 0.455-1.9531 1.112-0.2167-0.155-0.4933-0.255-0.7969-0.255-0.69 0-1.25 0.48-1.25 1.072 0 0.132 0.0265 0.257 0.0781 0.375-0.7847 0.3-1.3281 0.981-1.3281 1.767 0 1.069 1.0035 1.929 2.25 1.929h4.5c1.246 0 2.25-0.86 2.25-1.929 0-0.846-0.634-1.56-1.516-1.821 0.002-0.037 0.016-0.07 0.016-0.107 0-1.183-1.008-2.143-2.25-2.143z"/>
 <path id="path2876-6-6-4" style="fill:#eae3d1" d="m12 6c-1.551 0.2603-2.9614 1.1824-3.875 2.4687-0.8832 1.2438-1.272 2.8303-1.0625 4.3433 0.1408-0.025 0.2913-0.031 0.4375-0.031 0.2115 0 0.3204 0.106 0.5 0.156 0.5976-0.573 1.3469-1 2.25-1 1.615 0 2.925 1.188 3.188 2.719 0.891 0.51 1.624 1.306 1.624 2.406 0 0.196-0.024 0.381-0.062 0.563 1.149-0.414 2.196-1.157 2.906-2.156 0.914-1.287-4.303 0.027-4.562-1.532 0.071-1.964-1.166-2.515-1.5-2.812-1.179-1.047 1.707-5.3853 0.156-5.125z"/>
</svg>
